src/app/components/images/Logo6.svg

<svg width="193" height="24" viewBox="0 0 193 24" fill="none" xmlns="http://www.w3.org/2000/svg">
<path d="M96.194 20.6832H89.7267V3.39306H96.194V20.6832ZM90.3582 20.0516H95.5625V4.02463H90.3582V20.0516ZM105.193 20.6832H98.8555V3.39306H112.096C113.993 3.23946 115.882 3.77196 117.419 4.89369C118.081 5.49913 118.594 6.2493 118.918 7.08563C119.242 7.92198 119.368 8.82189 119.287 9.71516C119.382 11.2587 118.89 12.7811 117.912 13.9783C116.753 15.3072 114.826 15.9918 112.183 16.0158C111.517 16.0335 106.529 16.0158 105.197 16.0158L105.193 20.6832ZM99.4833 20.0516H104.561V15.3779H104.878C104.943 15.3779 111.419 15.3981 112.168 15.3779C114.63 15.3564 116.4 14.7463 117.434 13.5552C118.305 12.4719 118.738 11.101 118.647 9.7139C118.724 8.91352 118.617 8.10601 118.332 7.35399C118.047 6.60197 117.593 5.92565 117.005 5.37748C115.579 4.35444 113.835 3.87423 112.087 4.02337H99.4871L99.4833 20.0516ZM110.754 12.1316H104.518V7.42506H110.796C111.241 7.36356 111.695 7.41551 112.114 7.57604C112.534 7.73659 112.906 8.00052 113.196 8.34337C113.46 8.78161 113.584 9.28945 113.552 9.79979C113.576 10.2736 113.474 10.7452 113.256 11.1665C112.956 11.5276 112.569 11.8056 112.131 11.9738C111.693 12.1419 111.219 12.1945 110.754 12.1265V12.1316ZM105.15 11.5H110.754C111.79 11.5 112.432 11.284 112.716 10.8394C112.873 10.5162 112.944 10.1582 112.922 9.79979C112.95 9.42345 112.868 9.04713 112.687 8.716L112.68 8.70463C112.379 8.26253 111.781 8.05663 110.796 8.05663H105.15V11.5ZM130.813 20.9383C125.142 20.9383 121.757 19.5299 120.467 16.6335C120.256 16.074 120.113 15.4913 120.04 14.8979L119.984 14.5341H126.732L126.776 14.7994C126.828 15.0687 126.943 15.3222 127.11 15.5396C127.376 15.8617 128.266 16.4023 131.216 16.4023C134.763 16.4023 134.763 15.7796 134.763 15.4448C134.763 14.8802 134.353 14.687 131.46 14.3787L130.911 14.327C129.822 14.2246 128.445 14.0945 127.816 14.0402C122.511 13.5602 120.142 11.9118 120.142 8.69706C120.142 5.32063 124.173 3.13916 130.412 3.13916C135.501 3.13916 138.78 4.48063 140.156 7.12948C140.482 7.74562 140.701 8.41283 140.804 9.10253L140.848 9.45748H134.093L134.065 9.172C134.038 8.9489 133.944 8.73961 133.792 8.57327C133.539 8.23474 132.741 7.67516 130.263 7.67516C127.22 7.67516 126.8 8.06421 126.8 8.48358C126.8 9.04316 127.762 9.24148 130.842 9.57116C132.127 9.676 134.192 9.88821 134.9 9.97411C139.347 10.4566 141.332 12.0646 141.332 15.1897C141.333 17.8107 139.508 20.9383 130.813 20.9383ZM120.722 15.1657C120.785 15.5823 120.894 15.9905 121.047 16.3834C122.221 19.0221 125.417 20.3067 130.813 20.3067C135.325 20.3067 140.705 19.4225 140.705 15.1897C140.705 12.4196 138.949 11.0478 134.833 10.6019C134.125 10.516 132.073 10.3051 130.791 10.199C127.506 9.84274 126.171 9.65327 126.171 8.48358C126.171 7.27348 127.61 7.04358 130.265 7.04358C132.363 7.04358 133.719 7.42253 134.293 8.18674C134.45 8.37501 134.569 8.59215 134.642 8.8259H140.117C140.007 8.33737 139.832 7.86551 139.599 7.42253C138.336 4.99853 135.25 3.77074 130.414 3.77074C124.56 3.77074 120.776 5.70463 120.776 8.69706C120.776 11.5518 122.9 12.9615 127.874 13.4112C128.506 13.4655 129.881 13.5956 130.973 13.6992L131.526 13.7509C134.213 14.0339 135.397 14.2107 135.397 15.4448C135.397 16.7737 133.865 17.0339 131.219 17.0339C128.771 17.0339 127.225 16.6663 126.627 15.9425C126.443 15.7118 126.304 15.4481 126.218 15.1657H120.722ZM153.332 20.9168C146.738 20.9168 143.1 18.2503 143.1 13.4074V3.39306H149.482V13.4074C149.482 15.0684 150.968 16.0208 153.559 16.0208C156.035 16.0208 157.572 15.0267 157.572 13.4288V3.39306H163.888V13.9379C163.894 18.3728 160.043 20.9168 153.328 20.9168H153.332ZM143.732 4.02463V13.4074C143.732 19.3922 149.742 20.2853 153.332 20.2853C157.043 20.2853 163.266 19.4604 163.266 13.9379V4.02463H158.214V13.4288C158.214 15.3867 156.39 16.6524 153.569 16.6524C150.621 16.6524 148.86 15.4398 148.86 13.4074V4.02463H143.732ZM190.652 20.6832H184.629V12.8768L181.213 20.6832H175.96L172.58 12.892V20.6832H166.536V3.39306H174.486L178.616 12.9261L182.946 3.39306H190.659L190.652 20.6832ZM185.261 20.0516H190.02V4.02463H183.348L178.596 14.4823L174.066 4.02463H167.162V20.0516H171.943V9.85285L176.364 20.0554H180.785L185.253 9.868L185.261 20.0516ZM8.22898 3.70884H2.47656V20.3674H18.3721V15.9324H8.22898V3.70884ZM29.9831 3.3299C22.6404 3.3299 18.7789 6.8099 18.7789 11.9194C18.7789 17.692 22.8324 20.62 29.9831 20.62C37.8551 20.62 41.1658 17.2246 41.1658 11.9194C41.1658 6.532 37.4307 3.32737 29.9831 3.32737V3.3299ZM29.9616 7.65874C30.4614 7.65639 30.961 7.68549 31.4572 7.7459L25.0265 14.1766C24.7222 13.4883 24.5737 12.7412 24.5919 11.9888C24.5919 9.37537 25.9081 7.65621 29.9616 7.65621V7.65874ZM29.9831 16.3594C29.5014 16.3615 29.0202 16.3345 28.5418 16.2785L34.9839 9.83642C35.2769 10.5134 35.4171 11.2465 35.3945 11.9838C35.3945 14.5265 34.1818 16.3568 29.9831 16.3568V16.3594ZM52.5633 14.0857H58.4837C58.3966 14.4966 58.2149 14.8815 57.9532 15.2099C56.7258 16.2098 55.1593 16.6964 53.5814 16.5678C52.7871 16.6528 51.984 16.566 51.2262 16.3134C50.4685 16.0609 49.7737 15.6483 49.1894 15.1038C48.5908 14.2258 48.3065 13.1713 48.3822 12.1114C48.2854 11.0007 48.5946 9.89266 49.2526 8.99263C50.0799 8.0579 51.4808 7.65495 53.5397 7.65495C54.8497 7.54648 56.1581 7.88293 57.2534 8.6099C57.5986 8.8841 57.8567 9.25273 57.9961 9.67095H63.4871C63.4472 8.98186 63.2814 8.30589 62.9982 7.67642C61.6833 5.00232 58.6265 3.41074 53.4286 3.41074C48.9077 3.41074 45.8736 4.79011 44.1974 6.87053C43.0904 8.37288 42.5221 10.2046 42.5844 12.0697C42.5127 13.9771 43.0664 15.8555 44.1608 17.4192C45.8168 19.5665 48.7663 20.6225 52.3107 20.6225C54.6671 20.7869 57.0075 20.1269 58.9309 18.7556L59.0799 20.3674H63.6412V10.4996H52.5633V14.0857ZM76.5873 3.32611C69.2458 3.32611 65.3831 6.80611 65.3831 11.9156C65.3831 17.6882 69.4353 20.6162 76.5873 20.6162C84.4606 20.6162 87.7713 17.2208 87.7713 11.9156C87.7713 6.532 84.0361 3.32737 76.5873 3.32737V3.32611ZM76.5671 7.65495C77.0538 7.65351 77.5401 7.68135 78.0235 7.73832L71.618 14.1476C71.3232 13.4669 71.1797 12.7304 71.1974 11.9888C71.1924 9.37537 72.5136 7.65495 76.5671 7.65495ZM76.5873 16.3556C76.0929 16.3577 75.5989 16.3289 75.1081 16.2697L81.5717 9.80485C81.8758 10.4908 82.0213 11.2364 81.9974 11.9863C81.9999 14.5265 80.7924 16.3568 76.5873 16.3568V16.3556Z" fill="#FEFAEE"/>
</svg>

<svg xmlns="http://www.w3.org/2000/svg" width="193" height="24" fill="none" viewBox="0 0 193 24"><path fill="#fefaee" d="M96.194 20.683h-6.467V3.393h6.467zm-5.836-.631h5.204V4.025h-5.204zm14.835.631h-6.337V3.393h13.24a7.94 7.94 0 0 1 5.323 1.5 5.82 5.82 0 0 1 1.868 4.822 6.14 6.14 0 0 1-1.375 4.263c-1.159 1.33-3.086 2.014-5.729 2.038-.666.018-5.654 0-6.986 0zm-5.71-.631h5.078v-4.674h.317c.065 0 6.541.02 7.29 0 2.462-.022 4.232-.632 5.266-1.823a5.55 5.55 0 0 0 1.213-3.841 5.24 5.24 0 0 0-1.642-4.337 7.36 7.36 0 0 0-4.918-1.354h-12.6zm11.271-7.92h-6.236V7.425h6.278a2.67 2.67 0 0 1 2.4.918c.264.439.388.946.356 1.457.024.474-.078.945-.296 1.366a2.74 2.74 0 0 1-2.502.96zm-5.604-.632h5.604c1.036 0 1.678-.216 1.962-.66.157-.324.228-.682.206-1.04a1.96 1.96 0 0 0-.235-1.084l-.007-.011c-.301-.442-.899-.648-1.884-.648h-5.646zm25.663 9.438c-5.671 0-9.056-1.408-10.346-4.304a7.5 7.5 0 0 1-.427-1.736l-.056-.364h6.748l.044.265c.052.27.167.523.334.74.266.323 1.156.863 4.106.863 3.547 0 3.547-.622 3.547-.957 0-.565-.41-.758-3.303-1.066l-.549-.052c-1.089-.102-2.466-.232-3.095-.287-5.305-.48-7.674-2.128-7.674-5.343 0-3.376 4.031-5.558 10.27-5.558 5.089 0 8.368 1.342 9.744 3.99.326.617.545 1.284.648 1.974l.044.354h-6.755l-.028-.285a1.08 1.08 0 0 0-.273-.599c-.253-.338-1.051-.898-3.529-.898-3.043 0-3.463.39-3.463.809 0 .56.962.757 4.042 1.087 1.285.105 3.35.317 4.058.403 4.447.483 6.432 2.09 6.432 5.216.001 2.62-1.824 5.748-10.519 5.748m-10.091-5.772c.063.416.172.825.325 1.217 1.174 2.64 4.37 3.924 9.766 3.924 4.512 0 9.892-.884 9.892-5.117 0-2.77-1.756-4.142-5.872-4.588-.708-.086-2.76-.297-4.042-.403-3.285-.356-4.62-.546-4.62-1.715 0-1.21 1.439-1.44 4.094-1.44 2.098 0 3.454.379 4.028 1.143.157.188.276.405.349.639h5.475a5.7 5.7 0 0 0-.518-1.403c-1.263-2.424-4.349-3.652-9.185-3.652-5.854 0-9.638 1.934-9.638 4.926 0 2.855 2.124 4.265 7.098 4.714.632.055 2.007.185 3.099.288l.553.052c2.687.283 3.871.46 3.871 1.694 0 1.329-1.532 1.589-4.178 1.589-2.448 0-3.994-.368-4.592-1.091a2.3 2.3 0 0 1-.409-.777zm32.61 5.75c-6.594 0-10.232-2.666-10.232-7.509V3.393h6.382v10.014c0 1.661 1.486 2.614 4.077 2.614 2.476 0 4.013-.994 4.013-2.592V3.393h6.316v10.545c.006 4.435-3.845 6.979-10.56 6.979zm-9.6-16.891v9.382c0 5.985 6.01 6.878 9.6 6.878 3.711 0 9.934-.825 9.934-6.347V4.025h-5.052v9.404c0 1.958-1.824 3.223-4.645 3.223-2.948 0-4.709-1.212-4.709-3.245V4.025zm46.92 16.658h-6.023v-7.806l-3.416 7.806h-5.253l-3.38-7.791v7.791h-6.044V3.393h7.95l4.13 9.533 4.33-9.533h7.713zm-5.391-.631h4.759V4.025h-6.672l-4.752 10.457-4.53-10.457h-6.904v16.027h4.781v-10.2l4.421 10.203h4.421l4.468-10.187zM8.229 3.709H2.477v16.658h15.895v-4.435H8.23zm21.754-.38c-7.343 0-11.204 3.48-11.204 8.59 0 5.773 4.053 8.701 11.204 8.701 7.872 0 11.183-3.395 11.183-8.7 0-5.388-3.735-8.593-11.183-8.593zm-.021 4.33q.75-.005 1.495.087l-6.43 6.43a5.1 5.1 0 0 1-.435-2.187c0-2.614 1.316-4.333 5.37-4.333zm.021 8.7q-.724.003-1.441-.08l6.442-6.443c.293.677.433 1.41.41 2.148 0 2.543-1.212 4.373-5.41 4.373zm22.58-2.273h5.92c-.086.41-.268.796-.53 1.124a6.13 6.13 0 0 1-4.372 1.358 5.57 5.57 0 0 1-4.392-1.464 4.7 4.7 0 0 1-.807-2.993 4.6 4.6 0 0 1 .87-3.118c.828-.935 2.229-1.338 4.288-1.338a5.84 5.84 0 0 1 3.713.955c.346.274.604.643.743 1.061h5.491a5.7 5.7 0 0 0-.489-1.995c-1.315-2.674-4.371-4.265-9.57-4.265-4.52 0-7.554 1.38-9.23 3.46a8.3 8.3 0 0 0-1.614 5.199 8.76 8.76 0 0 0 1.577 5.35c1.656 2.146 4.605 3.202 8.15 3.202a10.18 10.18 0 0 0 6.62-1.866l.149 1.611h4.561V10.5H52.563zm24.024-10.76c-7.341 0-11.204 3.48-11.204 8.59 0 5.772 4.052 8.7 11.204 8.7 7.874 0 11.184-3.395 11.184-8.7 0-5.384-3.735-8.589-11.184-8.589m-.02 4.329q.73-.002 1.457.083l-6.406 6.41a5.1 5.1 0 0 1-.42-2.16c-.006-2.613 1.316-4.333 5.37-4.333m.02 8.7a12 12 0 0 1-1.479-.085l6.464-6.465a5 5 0 0 1 .425 2.181c.003 2.54-1.205 4.37-5.41 4.37"/></svg>
